X:SSF 14-19b 30
T:The Rakes of Rochester
M:4/4
K:G
P:A
dc|B2G2 G2D2 E4 D2G2 |1,3 F2G2 c2B2 B4 A2 :|2,4 F2G2 cAGF G4-G2 :|
P:B
A2|B2B2 A2d2 B2B2 A2d2 |1,3 B2B2 c2B2 AGFE D2 :|2,4 B2G2 A2GF G4 G2 :|

% SSF 14-19b 31 = SSF 14-19a 39 Petronella, into...

